packages/kaspersky-hexa-ui-icons/src/iconsSVGs/28x20/FlagSm.svg

<svg width="28" height="20" viewBox="0 0 28 20" fill="none" xmlns="http://www.w3.org/2000/svg">
<g clip-path="url(#clip0_5138_1810)">
<path d="M0 2C0 0.895431 0.895431 0 2 0H26C27.1046 0 28 0.895431 28 2V18C28 19.1046 27.1046 20 26 20H2C0.895431 20 0 19.1046 0 18V2Z" fill="white"/>
<mask id="mask0_5138_1810" style="mask-type:luminance" maskUnits="userSpaceOnUse" x="0" y="0" width="28" height="20">
<rect width="28" height="20" rx="2" fill="white"/>
</mask>
<g mask="url(#mask0_5138_1810)">
<path d="M26 19.5V20H2V19.5H26ZM27.5 18V2C27.5 1.17157 26.8284 0.5 26 0.5H2C1.17157 0.5 0.5 1.17157 0.5 2V18C0.5 18.8284 1.17157 19.5 2 19.5V20C0.895431 20 0 19.1046 0 18V2C2.57702e-07 0.895431 0.895431 0 2 0H26C27.1046 0 28 0.895431 28 2V18C28 19.1046 27.1046 20 26 20V19.5C26.8284 19.5 27.5 18.8284 27.5 18Z" fill="#F5F5F5"/>
<path fill-rule="evenodd" clip-rule="evenodd" d="M0 20H28V9.33334H0V20Z" fill="#7CCCF5"/>
<path d="M10.6663 9.33334C10.6663 8.96515 10.9651 8.66635 11.3333 8.66635C11.7015 8.66635 12.0003 8.96515 12.0003 9.33334C12.0003 10.0718 12.4001 10.7176 12.9984 11.0648C13.3167 11.2496 13.4251 11.6575 13.2406 11.9759C13.0558 12.2943 12.6478 12.4027 12.3294 12.2181C11.3369 11.6422 10.6663 10.5664 10.6663 9.33334ZM16.0003 9.33334C16.0003 8.96526 16.2983 8.66653 16.6663 8.66635C17.0345 8.66635 17.3333 8.96515 17.3333 9.33334C17.3333 10.5146 16.7184 11.5518 15.7943 12.1429C15.4841 12.3413 15.0718 12.2508 14.8734 11.9408C14.675 11.6306 14.7654 11.2183 15.0755 11.0199C15.6328 10.6634 16.0003 10.041 16.0003 9.33334Z" fill="#445F42"/>
<ellipse cx="14" cy="8.66666" rx="1.33333" ry="2" fill="#D89F3D"/>
</g>
</g>
<defs>
<clipPath id="clip0_5138_1810">
<rect width="28" height="20" fill="white"/>
</clipPath>
</defs>
</svg>

<svg xmlns="http://www.w3.org/2000/svg" width="28" height="20" fill="none" viewBox="0 0 28 20"><g clip-path="url(#a)"><path fill="#fff" d="M0 2C0 .8954.8954 0 2 0h24c1.1046 0 2 .8954 2 2v16c0 1.1046-.8954 2-2 2H2c-1.1046 0-2-.8954-2-2z"/><mask id="b" width="28" height="20" x="0" y="0" maskUnits="userSpaceOnUse" style="mask-type:luminance"><rect width="28" height="20" fill="#fff" rx="2"/></mask><g mask="url(#b)"><path fill="#f5f5f5" d="M26 19.5v.5H2v-.5zm1.5-1.5V2c0-.8284-.6716-1.5-1.5-1.5H2C1.1716.5.5 1.1716.5 2v16c0 .8284.6716 1.5 1.5 1.5v.5c-1.1046 0-2-.8954-2-2V2C0 .8954.8954 0 2 0h24c1.1046 0 2 .8954 2 2v16c0 1.1046-.8954 2-2 2v-.5c.8284 0 1.5-.6716 1.5-1.5"/><path fill="#7cccf5" fill-rule="evenodd" d="M0 20h28V9.3333H0z" clip-rule="evenodd"/><path fill="#445f42" d="M10.6663 9.3333c0-.3681.2988-.667.667-.667s.667.2988.667.667c0 .7385.3998 1.3843.9981 1.7315a.667.667 0 0 1 .2422.9111.667.667 0 0 1-.9112.2422c-.9925-.5759-1.6631-1.6517-1.6631-2.8848m5.334 0c0-.368.298-.6668.666-.667.3682 0 .667.2988.667.667 0 1.1813-.6149 2.2185-1.539 2.8096a.6667.6667 0 0 1-.7188-1.123c.5573-.3565.9248-.9789.9248-1.6866"/><ellipse cx="14" cy="9" fill="#d89f3d" rx="1" ry="2"/></g></g><defs><clipPath id="a"><path fill="#fff" d="M0 0h28v20H0z"/></clipPath></defs></svg>
